symbols/web/input/materialsymbolsoutlined/input_wght200grad200_48px.svg

<svg xmlns="http://www.w3.org/2000/svg" height="48" width="48"><path d="M8.6 38.75q-1.35 0-2.375-1T5.2 35.35V30.8h2.2v4.55q0 .45.375.825.375.375.825.375h30.85q.45 0 .825-.375.375-.375.375-.825V12.6q0-.45-.375-.825-.375-.375-.825-.375H8.6q-.45 0-.825.375-.375.375-.375.825v4.55H5.2V12.6q0-1.35 1.025-2.375T8.6 9.2h30.85q1.35 0 2.375 1.025T42.85 12.6v22.75q0 1.4-1.025 2.4t-2.375 1Zm14.95-7.3L22 29.95l4.8-4.85H5.2v-2.2h21.6L22 18.05l1.55-1.55 7.5 7.5Z"/></svg>

<svg xmlns="http://www.w3.org/2000/svg" height="48" width="48"><path d="M5.2 25.1V22.9H26.8L22 18.05L23.55 16.5L31.05 24L23.55 31.45L22 29.95L26.8 25.1ZM7.4 30.8V35.35Q7.4 35.8 7.775 36.175Q8.15 36.55 8.6 36.55H39.45Q39.9 36.55 40.275 36.175Q40.65 35.8 40.65 35.35V12.6Q40.65 12.15 40.275 11.775Q39.9 11.4 39.45 11.4H8.6Q8.15 11.4 7.775 11.775Q7.4 12.15 7.4 12.6V17.15H5.2V12.6Q5.2 11.25 6.225 10.225Q7.25 9.2 8.6 9.2H39.45Q40.8 9.2 41.825 10.225Q42.85 11.25 42.85 12.6V35.35Q42.85 36.75 41.825 37.75Q40.8 38.75 39.45 38.75H8.6Q7.25 38.75 6.225 37.75Q5.2 36.75 5.2 35.35V30.8Z"/></svg>
